packages/core/src/svgs/band.svg

<svg width="24" height="24" viewBox="0 0 24 24" fill="none" xmlns="http://www.w3.org/2000/svg">
<g clip-path="url(#clip0_31_6743)">
<path d="M0 0H24V24H0V0Z" fill="#516FFA"/>
<path d="M16.7142 16.5431L11.9999 18.8574L7.28564 16.5431V7.4445L11.9999 5.14307L14.5714 6.78878V10.6074L13.2856 9.83592V7.47021L11.9999 6.78878L8.57136 8.38735V15.6002L11.9999 17.2631L15.4285 15.6002V12.6431L10.7142 10.1745L12.0514 9.45449L16.7142 11.9959V16.5431ZM12.7756 11.7131L14.2971 12.4631L10.7142 14.0916V10.5131L11.9999 11.2416V12.3131L12.7756 11.7131Z" fill="white"/>
</g>
<defs>
<clipPath id="clip0_31_6743">
<rect width="24" height="24" fill="white"/>
</clipPath>
</defs>
</svg>

<svg xmlns="http://www.w3.org/2000/svg" width="24" height="24" fill="none" viewBox="0 0 24 24"><g clip-path="url(#a)"><path fill="#516FFA" d="M0 0h24v24H0z"/><path fill="#fff" d="M16.714 16.543 12 18.857l-4.714-2.314V7.445L12 5.143 14.57 6.79v3.818l-1.285-.771V7.47L12 6.79 8.57 8.387V15.6L12 17.263l3.428-1.663v-2.957l-4.714-2.469 1.337-.72 4.663 2.542zm-3.938-4.83 1.521.75-3.583 1.629v-3.579l1.286.729v1.071z"/></g><defs><clipPath id="a"><path fill="#fff" d="M0 0h24v24H0z"/></clipPath></defs></svg>
